icons/Design/scissors-cut-fill.svg

<svg viewBox="0 0 24 24" xmlns="http://www.w3.org/2000/svg"><path d="M9.87868 11.9966L7.56215 9.68005C7.08222 9.88385 6.55427 9.99658 6 9.99658C3.79086 9.99658 2 8.20572 2 5.99658C2 3.78744 3.79086 1.99658 6 1.99658C8.20914 1.99658 10 3.78744 10 5.99658C10 6.55086 9.88726 7.0788 9.68347 7.55873L12 9.87526L18.3744 3.50089C19.1554 2.71984 20.4217 2.71984 21.2028 3.50089L21.9099 4.208L9.68347 16.4344C9.88726 16.9144 10 17.4423 10 17.9966C10 20.2057 8.20914 21.9966 6 21.9966C3.79086 21.9966 2 20.2057 2 17.9966C2 15.7874 3.79086 13.9966 6 13.9966C6.55427 13.9966 7.08222 14.1093 7.56215 14.3131L9.87868 11.9966ZM6 7.99658C7.10457 7.99658 8 7.10115 8 5.99658C8 4.89201 7.10457 3.99658 6 3.99658C4.89543 3.99658 4 4.89201 4 5.99658C4 7.10115 4.89543 7.99658 6 7.99658ZM6 19.9966C7.10457 19.9966 8 19.1012 8 17.9966C8 16.892 7.10457 15.9966 6 15.9966C4.89543 15.9966 4 16.892 4 17.9966C4 19.1012 4.89543 19.9966 6 19.9966ZM15.5346 13.4099L21.9099 19.7852L21.2028 20.4923C20.4217 21.2733 19.1554 21.2733 18.3744 20.4923L13.4133 15.5312L15.5346 13.4099ZM16 10.9966H18V12.9966H16V10.9966ZM20 10.9966H22V12.9966H20V10.9966ZM6 10.9966H8V12.9966H6V10.9966ZM2 10.9966H4V12.9966H2V10.9966Z"/></svg>

<svg xmlns="http://www.w3.org/2000/svg" viewBox="0 0 24 24">
    <g>
        <path fill="none" d="M0 0h24v24H0z"/>
        <path d="M9.879 12L7.562 9.683a4 4 0 1 1 2.121-2.121L12 9.88l6.374-6.375a2 2 0 0 1 2.829 0l.707.707L9.683 16.438a4 4 0 1 1-2.121-2.121L9.88 12zM6 8a2 2 0 1 0 0-4 2 2 0 0 0 0 4zm0 12a2 2 0 1 0 0-4 2 2 0 0 0 0 4zm9.535-6.587l6.375 6.376-.707.707a2 2 0 0 1-2.829 0l-4.96-4.961 2.12-2.122zM16 11h2v2h-2v-2zm4 0h2v2h-2v-2zM6 11h2v2H6v-2zm-4 0h2v2H2v-2z"/>
    </g>
</svg>
